X:1
T:Father, to thee my soul I lift
T:Joel Thorne
T:Text: Charles Wesley (Hymn 435, from A Collection of Hymns, for the Use of the People called Methodists).
T:This edition by Edmund Gooch released into the public domain, November 2011.
T:Father, to thee my soul I lift
T:Taunton
C:Joel Thorne
Z:Text: Charles Wesley (Hymn 435, from
Z:A Collection of Hymns, for the Use
Z:of the People called Methodists).
%%score [ 1 2 3 4 ]
L:1/8
M:2/2
K:A
V:1 treble nm="Soprano" snm="S."
V:2 treble nm="Alto" snm="A."
V:3 treble-8 transpose=-12 nm="Tenor" snm="T."
V:4 bass nm="Bass" snm="B."
V:1
 E4 F2 G2 | (A3 G A2) B2 | (c2 e2) (d2 c2) | (c4 B4) | z2 B2 c2 f2 | e4 ^d4 | e6!p! E2 | %7
w: Thou all our|works _ _ in|us _ hast _|wrought, _|Our good is|all di-|vine: The|
w: Fa- ther, to|thee _ _ my|soul _ I _|lift, _|My soul on|thee de-|pends; Con-|
w: Mer- cy and|grace _ _ are|thine _ a- *|lone, _|And pow’r, and|wis- dom|too; With-|
 A2 A2 G2 A2 | (Bd)(cB) A2 B2 | c2 c2 B2 c2 | (df)(ed) c2 e2 | A2 (Bc) d2 c2 | %12
w: praise of ev- ’ry|vir- * tuous _ thought, the|praise of ev- ’ry|vir- * tuous _ thought And|right- eous _ word is|
w: vinc’d that ev- ’ry|per- * fect _ gift, con-|vinc’d that ev- ’ry|per- * fect _ gift From|thee a- * lone des-|
w: out the Spi- rit|of _ thy _ Son, with-|out the Spi- rit|of _ thy _ Son We|no- thing _ good can|
 (!fermata!c4 B2)!f! B2 | e2 B2 G2 B2 | c3 c c2 e2 | f2 (ed) c2 B2 | A8 |] %17
w: thine, _ the|praise of ev- ’ry|vir- tuous thought and|right- eous _ word is|thine.|
w: cends, _ con-|vinc’d that ev- ’ry|per- fect gift from|thee a- * lone des-|cends.|
w: do, _ with-|out the Spi- rit|of thy Son we|no- thing _ good can|do.|
V:2
 C4 D2 E2 | E6 G2 | A4 F4 | E8 | z2 G2 A2 A2 | G4 F4 | G6 z2 | z8 | z4 z2"^["!p!"^]" E2 | %9
w: Thou all our|works in|us hast|wrought,|Our good is|all di-|vine:||The|
w: Fa- ther, to|thee my|soul I|lift,|My soul on|thee de-|pends;||Con-|
w: Mer- cy and|grace are|thine a-|lone,|And pow’r, and|wis- dom|too;||With-|
 A2 A2 G2 A2 | (Bd)(cB) A2 C2 | E2 E2 (FG) A2 | (!fermata!A4 G2)!f! G2 | G2 G2 E2 G2 | A3 A A2 A2 | %15
w: praise of ev- ’ry|vir- * tuous _ thought And|right- eous word _ is|thine, _ the|praise of ev- ’ry|vir- tuous thought and|
w: vinc’d that ev- ’ry|per- * fect _ gift From|thee a- lone _ des-|cends, _ con-|vinc’d that ev- ’ry|per- fect gift from|
w: out the Spi- rit|of _ thy _ Son We|no- thing good _ can|do, _ with-|out the Spi- rit|of thy Son we|
 A2 (AF) E2 (ED) | C8 |] %17
w: right- eous _ word is _|thine.|
w: thee a- * lone des- *|cends.|
w: no- thing _ good can _|do.|
V:3
 A4 A2 d2 | (c3 B c2) e2 | (e2 c2) (B2 A2) | (A4 G4) | z2 e2 e2 c2 | B4 B4 | B6 z2 | z8 | z8 | z8 | %10
w: Thou all our|works _ _ in|us _ hast _|wrought, _|Our good is|all di-|vine:||||
w: Fa- ther, to|thee _ _ my|soul _ I _|lift, _|My soul on|thee de-|pends;||||
w: Mer- cy and|grace _ _ are|thine _ a- *|lone, _|And pow’r, and|wis- dom|too;||||
 z8 | z8 | z4 z2!f! !fermata!e2 | B2 B2 B2 e2 | e3 e e2 c2 | (Ad)(cA) A2 G2 | A8 |] %17
w: ||The|praise of ev- ’ry|vir- tuous thought And|right- * eous _ word is|thine.|
w: ||Con-|vinc’d that ev- ’ry|per- fect gift From|thee _ a- * lone des-|cends.|
w: ||With-|out the Spi- rit|of thy Son We|no- * thing _ good can|do.|
V:4
 A,,4 D,2 B,,2 | A,,6 E,2 | A,4 D,4 | E,8 | z2 E,2 A,2 F,2 | B,4 B,,4 | %6
w: Thou all our|works in|us hast|wrought,|Our good is|all di-|
w: Fa- ther, to|thee my|soul I|lift,|My soul on|thee de-|
w: Mer- cy and|grace are|thine a-|lone,|And pow’r, and|wis- dom|
 E,6"^Inst.""^["!p!"^]" D,2 | C,2 A,,2 E,2 C,2 | D,2 E,2 A,,2 z2 | z8 | z4 z2 A,2 | C2 C2 B,2 A,2 | %12
w: vine: *||||And|right- eous word is|
w: pends; *||||From|thee a- lone des-|
w: too; *||||We|no- thing good can|
"^Notes:The order of staves in the source is Alto - Tenor - Soprano - Bass, with the alto part notated in the treble clefan octave above sounding pitch.The alto part in the present edition from bar 8 to the penultimate crotchet of bar 10 is printed in the source asa second treble part on the tenor stave, with a change of clef to indicate that it should be sung at treble pitch.No text is underlaid in the source, although Hymns 123 and 435 (of the Collection of Hymns for the Use ofthe People called Methodists) are specified. The present text is an editorial selection of four verses from Hymn435: the alternative text, Hymn 123, is 'Let the redeem’d give thanks and praise‘." !fermata!E,6!f! E,2 | %13
w: thine, the|
w: cends, con-|
w: do, with-|
 E,2 E,2 E,2 E,2 | A,3 A, A,2 A,2 | D,2 (C,D,) E,2 E,2 | A,,8 |] %17
w: praise of ev- ’ry|vir- tuous thought and|right- eous _ word is|thine.|
w: vinc’d that ev- ’ry|per- fect gift from|thee a- * lone des-|cends.|
w: out the Spi- rit|of thy Son we|no- thing _ good can|do.|

